icons/Wind.svg

<svg width="16" height="16" viewBox="0 0 16 16" fill="currentColor" xmlns="http://www.w3.org/2000/svg">
<path d="M7.23078 6.42865L6.83576 6.38927L7.19128 1.38766C7.19128 0.954451 7.5468 0.600006 8.02082 0.600006C8.49485 0.600006 8.85037 0.954451 8.85037 1.42704L9.12688 6.38927L8.69236 6.42865L8.37634 1.42704C8.37634 1.23013 8.21833 1.03322 8.02082 1.03322C7.82331 1.03322 7.6653 1.19075 7.6653 1.38766L7.23078 6.42865V6.42865Z" fill="#3D3D3D"/>
<path d="M12.4056 10.682C12.2475 10.682 12.05 10.6426 11.971 10.5245L7.7443 8.04334L7.90231 7.61013L12.2475 10.1306C12.4451 10.2094 12.6426 10.2094 12.7216 10.0519C12.8006 9.89433 12.7611 9.65803 12.6426 9.57927L8.73185 6.42865L8.96887 6.0742L12.9191 9.22482C13.2746 9.46112 13.3536 9.93371 13.1166 10.3275C12.9191 10.5245 12.6426 10.682 12.4056 10.682V10.682Z" fill="#3D3D3D"/>
<path d="M3.55702 10.682C3.32 10.7214 3.08299 10.6032 2.88548 10.3275C2.64847 9.93371 2.72747 9.46112 3.08299 9.22482L6.9937 6.0742L7.27022 6.42865L3.32 9.57927C3.12249 9.65803 3.12249 9.93371 3.241 10.0519C3.35951 10.17 3.59652 10.2488 3.71502 10.1306L7.90225 7.61013L8.13926 8.00396L3.91254 10.4851C3.71502 10.6032 3.71502 10.6426 3.55702 10.682Z" fill="#3D3D3D"/>
<path d="M7.98123 7.33447C8.22121 7.33447 8.41575 7.14051 8.41575 6.90126C8.41575 6.662 8.22121 6.46805 7.98123 6.46805C7.74125 6.46805 7.5467 6.662 7.5467 6.90126C7.5467 7.14051 7.74125 7.33447 7.98123 7.33447Z" fill="#3D3D3D"/>
<path d="M8.53406 15.3686H7.34899C7.11198 15.3686 6.87497 15.1716 6.87497 14.6991L7.23049 9.97312C7.23049 9.81559 7.30949 9.73683 7.4675 9.77621C7.62551 9.77621 7.70451 9.85498 7.66501 10.0125L7.30949 14.7384C7.30949 14.896 7.34899 14.9354 7.34899 14.9354H8.53406C8.57356 14.9354 8.57356 14.896 8.57356 14.896L8.21804 10.0519C8.21804 9.89436 8.29705 9.81559 8.41555 9.81559C8.57356 9.81559 8.65257 9.89436 8.65257 10.0125L9.04759 14.8172C9.04759 15.0929 8.77107 15.3686 8.53406 15.3686Z" fill="#3D3D3D"/>
</svg>

<svg xmlns="http://www.w3.org/2000/svg" width="16" height="16" fill="currentColor" class="si si-Wind" viewBox="0 0 16 16">
  <path d="m7.23 6.429-.394-.04.355-5.001c0-.434.356-.788.83-.788s.83.354.83.827l.276 4.962-.435.04-.316-5.002c0-.197-.158-.394-.355-.394a.354.354 0 0 0-.356.355z"/>
  <path d="M12.406 10.682c-.159 0-.356-.04-.435-.158l-4.227-2.48.158-.434 4.346 2.52c.197.08.395.08.474-.078s.04-.394-.08-.473l-3.91-3.15.237-.355 3.95 3.15c.356.237.435.71.198 1.104-.198.197-.474.354-.711.354"/>
  <path d="M3.557 10.682c-.237.04-.474-.079-.672-.354-.237-.394-.158-.867.198-1.103l3.91-3.15.277.354-3.95 3.15c-.198.079-.198.355-.079.473s.356.197.474.079l4.187-2.52.237.393-4.226 2.481c-.198.118-.198.158-.356.197"/>
  <path d="M7.981 7.334a.434.434 0 1 0 .002-.867.434.434 0 0 0-.002.867m.553 8.035H7.35c-.237 0-.474-.197-.474-.67l.355-4.726c0-.157.08-.236.237-.197.159 0 .238.079.198.236l-.356 4.726c0 .158.04.197.04.197h1.185c.04 0 .04-.039.04-.039l-.356-4.844c0-.158.08-.236.198-.236.158 0 .237.078.237.196l.395 4.805c0 .276-.277.552-.514.552"/>
</svg>
